img/full-logo.svg

<svg width="600" height="192" viewBox="0 0 600 192" fill="none" xmlns="http://www.w3.org/2000/svg">
<g clip-path="url(#clip0_4_3)">
<path d="M130.455 93.9952C131.788 94.765 131.788 96.6895 130.455 97.4593L27.3637 156.979C26.0303 157.749 24.3636 156.786 24.3636 155.247L24.3636 36.2077C24.3636 34.6681 26.0303 33.7059 27.3636 34.4757L130.455 93.9952Z" fill="#8F00FF" fill-opacity="0.2"/>
<path d="M155.909 93.9952C157.242 94.765 157.242 96.6895 155.909 97.4593L52.8182 156.979C51.4849 157.749 49.8182 156.786 49.8182 155.247L49.8182 36.2077C49.8182 34.6681 51.4849 33.7059 52.8182 34.4757L155.909 93.9952Z" fill="#8F00FF" fill-opacity="0.6"/>
<path d="M185 93.9952C186.333 94.765 186.333 96.6895 185 97.4593L81.9091 156.979C80.5758 157.749 78.9091 156.786 78.9091 155.247L78.9091 36.2077C78.9091 34.6681 80.5758 33.7059 81.9091 34.4757L185 93.9952Z" fill="#8F00FF"/>
<path d="M270.837 72.616L245.493 95.944L237.429 90.28L262.005 67.72L259.893 73.672H226.293V62.824H270.837V72.616ZM245.973 98.248H237.429V90.28C238.645 89.32 240.245 88.68 242.229 88.36C244.213 87.976 246.069 87.784 247.797 87.784C251.125 87.784 254.293 88.296 257.301 89.32C260.309 90.344 262.965 91.848 265.269 93.832C267.637 95.752 269.493 98.152 270.837 101.032C272.181 103.848 272.853 107.08 272.853 110.728C272.853 115.528 271.733 119.688 269.493 123.208C267.253 126.728 264.181 129.448 260.277 131.368C256.437 133.288 252.149 134.248 247.413 134.248C242.805 134.248 238.645 133.352 234.933 131.56C231.285 129.704 228.373 127.016 226.197 123.496C224.085 119.976 223.029 115.688 223.029 110.632H235.125C235.125 114.664 236.245 117.8 238.485 120.04C240.789 122.216 243.829 123.304 247.605 123.304C251.445 123.304 254.517 122.152 256.821 119.848C259.189 117.48 260.373 114.376 260.373 110.536C260.373 107.016 259.189 104.104 256.821 101.8C254.453 99.432 250.837 98.248 245.973 98.248ZM308.79 133H283.542V62.824H308.118C315.03 62.824 321.11 64.328 326.358 67.336C331.606 70.28 335.702 74.408 338.646 79.72C341.654 84.968 343.158 91.08 343.158 98.056C343.158 104.904 341.686 110.984 338.742 116.296C335.862 121.544 331.83 125.64 326.646 128.584C321.526 131.528 315.574 133 308.79 133ZM295.83 68.488V127.432L289.974 121.672H307.638C312.31 121.672 316.342 120.712 319.734 118.792C323.126 116.872 325.718 114.152 327.51 110.632C329.302 107.112 330.198 102.92 330.198 98.056C330.198 93.064 329.27 88.808 327.414 85.288C325.558 81.704 322.902 78.952 319.446 77.032C315.99 75.112 311.83 74.152 306.966 74.152H289.974L295.83 68.488ZM352.78 112.552V102.184H383.692V112.552H352.78ZM416.917 68.68V133H404.629V68.68H416.917ZM384.085 74.152V62.824H437.461V74.152H384.085ZM459.142 62.824V133H446.854V62.824H459.142ZM486.986 62.824V133H474.698V62.824H486.986ZM518.09 74.152H475.658V62.824H518.09V74.152ZM513.098 104.296H475.466V93.256H513.098V104.296ZM546.063 105.352L522.351 62.824H536.079L549.903 88.36C550.415 89.32 550.863 90.216 551.247 91.048C551.631 91.88 552.015 92.712 552.399 93.544C552.719 92.968 552.975 92.424 553.167 91.912C553.359 91.4 553.583 90.888 553.839 90.376C554.159 89.8 554.511 89.128 554.895 88.36L568.623 62.824H581.967L558.351 105.352V133H546.063V105.352Z" fill="#F4F4F4"/>
</g>
<defs>
<clipPath id="clip0_4_3">
<rect width="600" height="191.716" fill="white"/>
</clipPath>
</defs>
</svg>

<svg xmlns="http://www.w3.org/2000/svg" width="600" height="192" fill="none"><g clip-path="url(#a)"><path fill="#8F00FF" fill-opacity=".2" d="M130.455 93.995c1.333.77 1.333 2.694 0 3.464L27.364 156.98c-1.334.77-3-.193-3-1.732V36.207c0-1.539 1.666-2.501 3-1.731l103.091 59.52Z"/><path fill="#8F00FF" fill-opacity=".6" d="M155.909 93.995c1.333.77 1.333 2.694 0 3.464l-103.09 59.52c-1.334.77-3-.193-3-1.732V36.207c0-1.539 1.666-2.501 3-1.731l103.09 59.52Z"/><path fill="#8F00FF" d="M185 93.995c1.333.77 1.333 2.694 0 3.464L81.91 156.98c-1.334.77-3-.193-3-1.732V36.207c0-1.539 1.666-2.501 3-1.731L185 93.996Z"/><path fill="#F4F4F4" d="m270.837 72.616-25.344 23.328-8.064-5.664 24.576-22.56-2.112 5.952h-33.6V62.824h44.544v9.792Zm-24.864 25.632h-8.544V90.28c1.216-.96 2.816-1.6 4.8-1.92 1.984-.384 3.84-.576 5.568-.576 3.328 0 6.496.512 9.504 1.536 3.008 1.024 5.664 2.528 7.968 4.512 2.368 1.92 4.224 4.32 5.568 7.2 1.344 2.816 2.016 6.048 2.016 9.696 0 4.8-1.12 8.96-3.36 12.48-2.24 3.52-5.312 6.24-9.216 8.16-3.84 1.92-8.128 2.88-12.864 2.88-4.608 0-8.768-.896-12.48-2.688-3.648-1.856-6.56-4.544-8.736-8.064-2.112-3.52-3.168-7.808-3.168-12.864h12.096c0 4.032 1.12 7.168 3.36 9.408 2.304 2.176 5.344 3.264 9.12 3.264 3.84 0 6.912-1.152 9.216-3.456 2.368-2.368 3.552-5.472 3.552-9.312 0-3.52-1.184-6.432-3.552-8.736-2.368-2.368-5.984-3.552-10.848-3.552ZM308.79 133h-25.248V62.824h24.576c6.912 0 12.992 1.504 18.24 4.512 5.248 2.944 9.344 7.072 12.288 12.384 3.008 5.248 4.512 11.36 4.512 18.336 0 6.848-1.472 12.928-4.416 18.24-2.88 5.248-6.912 9.344-12.096 12.288-5.12 2.944-11.072 4.416-17.856 4.416Zm-12.96-64.512v58.944l-5.856-5.76h17.664c4.672 0 8.704-.96 12.096-2.88 3.392-1.92 5.984-4.64 7.776-8.16 1.792-3.52 2.688-7.712 2.688-12.576 0-4.992-.928-9.248-2.784-12.768-1.856-3.584-4.512-6.336-7.968-8.256-3.456-1.92-7.616-2.88-12.48-2.88h-16.992l5.856-5.664Zm56.95 44.064v-10.368h30.912v10.368H352.78Zm64.137-43.872V133h-12.288V68.68h12.288Zm-32.832 5.472V62.824h53.376v11.328h-53.376Zm75.057-11.328V133h-12.288V62.824h12.288Zm27.844 0V133h-12.288V62.824h12.288Zm31.104 11.328h-42.432V62.824h42.432v11.328Zm-4.992 30.144h-37.632v-11.04h37.632v11.04Zm32.965 1.056-23.712-42.528h13.728l13.824 25.536c.512.96.96 1.856 1.344 2.688l1.152 2.496c.32-.576.576-1.12.768-1.632.192-.512.416-1.024.672-1.536.32-.576.672-1.248 1.056-2.016l13.728-25.536h13.344l-23.616 42.528V133h-12.288v-27.648Z"/></g><defs><clipPath id="a"><path fill="#fff" d="M0 0h600v191.716H0z"/></clipPath></defs></svg>
